image/ios.svg

<?xml version="1.0" encoding="UTF-8"?>
<svg width="40px" height="40px" viewBox="0 0 40 40" version="1.1" xmlns="http://www.w3.org/2000/svg" xmlns:xlink="http://www.w3.org/1999/xlink">
    <title>矩形</title>
    <g id="Flat-Web" stroke="none" stroke-width="1" fill="none" fill-rule="evenodd">
        <g id="landingpage" transform="translate(-508.000000, -1126.000000)" fill="#000000" fill-rule="nonzero">
            <g id="编组-20" transform="translate(0.000000, 964.000000)">
                <g id="编组-18" transform="translate(448.000000, 124.000000)">
                    <g id="编组-14" transform="translate(60.000000, 38.000000)">
                        <path d="M36,29.317881 C35.950608,29.4704246 35.178936,32.2100304 33.2828544,35.0270945 C31.641795,37.457115 29.9448842,39.906809 27.2647947,39.9498138 C24.6291921,39.9969709 23.7857876,38.349243 20.7766121,38.349243 C17.7712733,38.349243 16.8264621,39.906809 14.335636,39.9969709 C11.7606929,40.1042358 9.77927997,37.3425343 8.13200409,34.9243772 C4.76542828,29.9707142 2.17324405,20.8869061 5.64977423,14.79925 C7.36028361,11.7533705 10.434781,9.81726305 13.7828045,9.76437207 C16.3058301,9.71583096 18.7063226,11.5039425 20.238739,11.5039425 C21.8130681,11.5039425 24.7169517,9.34030482 27.780473,9.66402748 C29.0631608,9.71963716 32.6509567,10.2097935 34.9625727,13.6197805 C34.7806914,13.7457303 30.6696895,16.2149495 30.7154876,21.2404356 C30.7772641,27.3073801 35.9443914,29.2971694 36,29.317881 M25.7757482,6.41419631 C27.1572201,4.69904477 28.0650237,2.341391 27.826174,0 C25.8536973,0.078743352 23.450485,1.33324885 22.0221951,3.03821765 C20.7593224,4.52574014 19.6462286,6.920121 19.9566651,9.23432505 C22.1482735,9.369815 24.401707,8.06622467 25.7757482,6.41419631" id="形状"></path>
                    </g>
                </g>
            </g>
        </g>
    </g>
</svg>

<svg width="40" height="40" xmlns="http://www.w3.org/2000/svg"><path d="M36 29.318c-.05.152-.821 2.892-2.717 5.71-1.641 2.43-3.338 4.879-6.018 4.922-2.636.047-3.48-1.6-6.488-1.6-3.006 0-3.95 1.557-6.441 1.647-2.575.107-4.557-2.654-6.204-5.073C4.765 29.971 2.173 20.887 5.65 14.8c1.71-3.046 4.785-4.982 8.133-5.035 2.523-.048 4.923 1.74 6.456 1.74 1.574 0 4.478-2.164 7.541-1.84 1.283.056 4.871.546 7.183 3.956-.182.126-4.293 2.595-4.248 7.62.062 6.067 5.23 8.057 5.285 8.078M25.776 6.414C27.157 4.7 28.065 2.341 27.826 0c-1.972.079-4.376 1.333-5.804 3.038-1.263 1.488-2.376 3.882-2.065 6.196 2.191.136 4.445-1.168 5.819-2.82" fill="#000" fill-rule="nonzero"/></svg>
